X:1
T:Title
%%score 1 2 ( 3 4 5 )
L:1/8
Q:1/4=80
M:5/4
K:G
V:1 treble nm="Voice Oohs, Acou Piano"
V:2 treble nm="Voice Oohs, Oboe"
V:3 treble nm="Voice Oohs, Chorale"
V:4 treble 
V:5 treble 
V:1
 e4 c6 | e4 c6 | e4 c6 | e4 c6 | e4 c6 | e4 c6 | e4 c6 | e4 c6 | e4 c6 | e4 c6 | %10
 D2 Gc (3:2:2d2 c- c<B A2 | (3:2:2G2 A- A<B- B G2 A2 B- | B2- B2- B4- B z | %13
 D3 G (3:2:2c2 B- B<A G2 | A4 G2 c e3 | d4 B2 A3 E | G2- G6 z2 | e4 c6 | e4 c6 | e4 c4 z2 | %20
 D2 Gc (3:2:2d2 c- c<B A2 | (3:2:2G2 A- A<B G2 A2 B2- | B4 D G2 A c2 | B2 A2 G2 A4 | %24
 G2 c e3 d2 B2 | A3 E G4 z2 | e4 c6 | e4 c6 | e4 c6 | e4 c6 | e4 c6 | e4 c6 | e4 c6 | e4 c6 | %34
 e4 c6 | e4 c6 | e4 c6 | e4 c6 | e4 c6 | D2 Gc (3:2:2d2 c- c<B A2 | (3:2:2G2 A- A<B G2 A2 B2- | %41
 B4 z D GA c2 | B2 AG A6 | G2 c e3 d2 B2 | A3 E G4 z2 | e4 c6 | e4 c6 | e4 c6 | e4 c6 | e4 c6 | %50
 e4 c6 | e4 c6 | e4 c6 | e4 c6 |] %54
V:2
 z10 | z10 | z2 z4 e4 | (3:2:2d2 B- B<G- G4 E2 | A2- (3:2:2A d2 B4 z/ A3/2 | %5
 (3:2:2c2 =f- f<d g4 e2 | c2 G2 c6- | c6 z4 | z10 | z10 | z10 | z10 | z10 | z10 | z10 | z10 | z10 | %17
 z10 | z10 | z10 | z10 | z10 | z10 | z10 | z10 | z10 | z10 | z10 | z10 | z g3 z2 e4 | %30
 (3:2:2d2 B- B<G- G4 E2 | A2 d2 B4 z A | c3 =f d3 a g2 | e2 A2 d4 z A | (3:2:2c2 =f- f<d g4 e2 | %35
 c2 G2 c6- | c2 z2 z2 z4 | z10 | z10 | z10 | z10 | z10 | z10 | z10 | z10 | z10 | z10 | z2 z4 e4 | %48
 (3:2:2d2 B- B<G- G4 E2 | A2- (3:2:2A d2 B4 A2 | (3:2:2c2 =f- f<d g4 e2 | c2 G2 c6- | c2- c2- c6- | %53
 c4 z2 z4 |] %54
V:3
 [DA]4 [=FG]6 | [DA]4 [=FG]6 | [DA]4 [=FG]6 | [DA]4 [=FG]6 | [DA]4 [=FG]6 | [DA]4 [=FG]6 | %6
 [DA]4 [=FG]6 | [DA]4 [=FG]6 | [DA]4 [=FG]6 | [DA]4 [=FG]6 | D2 [DG][Gc] (3:2:2B2 A- A<G [EF]2 | %11
 z2 z/ G3/2- G z z4 | z10 | D3 G (3:2:2[EG]2 [EG]- [EG]<[EF] E2 | z2 z2 z2 z A3 | G4 G2 C2 CC- | %16
 [CD]2- [CD]6 z2 | [DA]4 [=FG]6 | [DA]4 [=FG]6 | [DA]4 [=FG]4 z2 | %20
 [CD]2 [DG][Gc] (3:2:2B2 A- A<G [EF]2 | z2 z/ G3/2 G2 E2 D2- | D4 z2 z4 | [EG]2 [EF]2 [CE]2 G .F3 | %24
 z2 z A3 z4 | E3 D- D4 z2 | [DA]4 [=FG]6 | [DA]4 [=FG]6 | [DA]4 [=FG]6 | [DA]4 [=FG]6 | %30
 [DA]4 [=FG]6 | [DA]4 [=FG]6 | [DA]4 [=FG]6 | [DA]4 [=FG]6 | [DA]4 [=FG]6 | [DA]4 [=FG]6 | %36
 [DA]4 [=FG]6 | [DA]4 [=FG]6 | [DA]4 [=FG]6 | [CD]2 [DG][Gc] (3:2:2B2 A- A<G [EF]2 | %40
 z2 z/ G3/2 z2 E2 D2- | D4 z2 z4 | [EG]2 [EF]E [CG]2 [DF]4 | [CG]2 A A3 [=FG]2 [DG]2 | %44
 z2 z D- D4 z2 | [DA]4 [=FG]6 | [DA]4 [=FG]6 | [DA]4 [=FG]6 | [DA]4 [=FG]6 | [DA]4 [=FG]6 | %50
 [DA]4 [=FG]6 | [DA]4 [=FG]6 | [DA]4 [=FG]6 | [DA]4 [=FG]6 |] %54
V:4
 x10 | x10 | x10 | x10 | x10 | x10 | x10 | x10 | x10 | x10 | z4 E2 D2 z2 | %11
 (3:2:2[D-E]2 [DF]- [DF]2 z G2 [B,E]2 [CD]- | [CD] [B,E]2 [CD]2 [B,E] [CD]4 | x10 | %14
 [DA]4 [CG]2 .A2 z =F | D2 B,4 E3 D | x10 | x10 | x10 | x10 | z4 E2 D2 z2 | %21
 (3:2:2[D-E]2 [DF]- [DF]2 C4 z C | B,4 [B,D] [B,E]2 [EG] [DG]2 | z2 z4 D4 | %24
 [CG]2 .A2 =F2 [FG]2 [DG]2 | z C3 z2 z4 | x10 | x10 | x10 | x10 | x10 | x10 | x10 | x10 | x10 | %35
 x10 | x10 | x10 | x10 | z4 E2 D2 z2 | (3:2:2E2 F- F2 G2 z2 z C | B,4 z D [B,E][EG] [DG]2 | x10 | %43
 z2 C4 z4 | E4 C2 B,2 z2 | x10 | x10 | x10 | x10 | x10 | x10 | x10 | x10 | x10 |] %54
V:5
 x10 | x10 | x10 | x10 | x10 | x10 | x10 | x10 | x10 | x10 | x10 | z4 C4 z2 | x10 | x10 | %14
 z2 z4 C4 | x10 | x10 | x10 | x10 | x10 | x10 | z2 z2 z2 z .B,3 | x10 | x10 | z2 C2 z2 z4 | %25
 .B,2 z2 C2 B,2 z2 | x10 | x10 | x10 | x10 | x10 | x10 | x10 | x10 | x10 | x10 | x10 | x10 | x10 | %39
 x10 | D4 C3 .B,3 | x10 | x10 | x10 | B, C3 z2 z4 | x10 | x10 | x10 | x10 | x10 | x10 | x10 | x10 | %53
 x10 |] %54

